packages/assets/static/images/icons/eye.svg

<svg width="24" height="24" viewBox="0 0 24 24" xmlns="http://www.w3.org/2000/svg">
<g clip-path="url(#clip0_2001_46573)">
<path d="M22.6853 11.6962C22.6525 11.6222 21.8584 9.86062 20.0931 8.09531C17.7409 5.74312 14.77 4.5 11.5 4.5C8.22999 4.5 5.25905 5.74312 2.90687 8.09531C1.14155 9.86062 0.343741 11.625 0.314679 11.6962C0.272035 11.7922 0.25 11.896 0.25 12.0009C0.25 12.1059 0.272035 12.2097 0.314679 12.3056C0.347491 12.3797 1.14155 14.1403 2.90687 15.9056C5.25905 18.2569 8.22999 19.5 11.5 19.5C14.77 19.5 17.7409 18.2569 20.0931 15.9056C21.8584 14.1403 22.6525 12.3797 22.6853 12.3056C22.7279 12.2097 22.75 12.1059 22.75 12.0009C22.75 11.896 22.7279 11.7922 22.6853 11.6962ZM11.5 18C8.61437 18 6.09343 16.9509 4.00655 14.8828C3.15028 14.0313 2.42179 13.0603 1.84374 12C2.42164 10.9396 3.15014 9.9686 4.00655 9.11719C6.09343 7.04906 8.61437 6 11.5 6C14.3856 6 16.9066 7.04906 18.9934 9.11719C19.8514 9.9684 20.5815 10.9394 21.1609 12C20.485 13.2619 17.5403 18 11.5 18ZM11.5 7.5C10.61 7.5 9.73995 7.76392 8.99993 8.25839C8.2599 8.75285 7.68313 9.45566 7.34253 10.2779C7.00194 11.1002 6.91282 12.005 7.08646 12.8779C7.26009 13.7508 7.68867 14.5526 8.31801 15.182C8.94735 15.8113 9.74917 16.2399 10.6221 16.4135C11.495 16.5872 12.3998 16.4981 13.2221 16.1575C14.0443 15.8169 14.7471 15.2401 15.2416 14.5001C15.7361 13.76 16 12.89 16 12C15.9988 10.8069 15.5242 9.66303 14.6806 8.81939C13.837 7.97575 12.6931 7.50124 11.5 7.5ZM11.5 15C10.9066 15 10.3266 14.8241 9.83328 14.4944C9.33993 14.1648 8.95542 13.6962 8.72835 13.1481C8.50129 12.5999 8.44188 11.9967 8.55764 11.4147C8.67339 10.8328 8.95911 10.2982 9.37867 9.87868C9.79823 9.45912 10.3328 9.1734 10.9147 9.05764C11.4967 8.94189 12.0999 9.0013 12.648 9.22836C13.1962 9.45542 13.6648 9.83994 13.9944 10.3333C14.324 10.8266 14.5 11.4067 14.5 12C14.5 12.7956 14.1839 13.5587 13.6213 14.1213C13.0587 14.6839 12.2956 15 11.5 15Z"/>
</g>
<defs>
<clipPath id="clip0_2001_46573">
<rect width="24" height="24"/>
</clipPath>
</defs>
</svg>

<svg viewBox="0 0 24 24" xmlns="http://www.w3.org/2000/svg" aria-hidden="true" fill="currentColor"><g clip-path="url(#a)"><path d="M22.685 11.696c-.032-.074-.827-1.835-2.592-3.6C17.741 5.742 14.77 4.5 11.5 4.5S5.26 5.743 2.907 8.095C1.142 9.861.344 11.625.315 11.696a.75.75 0 0 0 0 .61c.032.074.827 1.834 2.592 3.6C5.259 18.256 8.23 19.5 11.5 19.5s6.24-1.243 8.593-3.594c1.765-1.766 2.56-3.526 2.592-3.6a.75.75 0 0 0 0-.61M11.5 18c-2.886 0-5.407-1.05-7.493-3.117A12.5 12.5 0 0 1 1.844 12a12.5 12.5 0 0 1 2.163-2.883C6.093 7.05 8.614 6 11.5 6s5.407 1.05 7.493 3.117A12.5 12.5 0 0 1 21.161 12c-.676 1.262-3.62 6-9.661 6m0-10.5a4.5 4.5 0 1 0 0 9 4.5 4.5 0 0 0 0-9m0 7.5a3 3 0 1 1 0-5.999 3 3 0 0 1 0 5.999"/></g><defs><clipPath id="a"><path d="M0 0h24v24H0z"/></clipPath></defs></svg>
